X: 74
T: A Spirit Has Come
C: Teton Sioux band 1911-1914
N: Derived from sioux074.krn
O: South Dakota, U.S.A.
N: Teton Sioux Music by Frances Densmore, 1918
Z: transcribed to **kern format by Craig Sapp
L: 1/8
M: 2/4
Q: 1/4=58
K: A clef=bass
%%linebreak <none>
C [I:setbarnb 1]| 
C> C C C ||  
[M:3/4]C6 | 
B,2B,2A, A, | 
A,4-A, B, ||  
[M:2/4]B,> B, B, A, ||  
[M:3/4]A,6 | 
A,2A,2F, F, | 
F,6 ||  
[M:2/4]B, B, B, B, | 
(3B, A, A, F,3/ A,/ | 
A,> A, A, A, ||  
[M:3/4]A,6 | 
A,2A,2F, F, | 
F,4-F, C, ||  
[M:2/4]C,> C, C, C, ||  
[M:3/4]C,6 | 
B,,2B,,2A,, A,, | 
A,,4-A,, B,, ||  
[M:2/4]B,,> B,, B,, A,, ||  
[M:3/4]A,,6 | 
A,,2A,,2F,, F,, | 
F,,6 |]  



